static/assets/template/assets/img/icons/essential/detailed/Protein.svg

<svg height="145" viewBox="0 0 150 145" width="150" xmlns="http://www.w3.org/2000/svg"><g fill="none" fill-rule="evenodd" transform="translate(2 1)"><g stroke-linecap="round" stroke-linejoin="round" stroke-width="3" transform="translate(0 141)"><path d="m1.7.8h-1.4"/><path d="m41.8.8h-34.5"/><path d="m49.3.8h-1.4"/><path d="m139.2.8h-82.3"/><path d="m145.8.8h-2.1"/></g><path d="m100.8 22.5h-56.3c-2.9 0-5.3-2.4-5.3-5.3v-11.4c0-2.9 2.4-5.3 5.3-5.3h56.3c2.9 0 5.3 2.4 5.3 5.3v11.4c0 2.9-2.4 5.3-5.3 5.3z" fill-rule="nonzero"/><path d="m101.4 22.5h-49.6c-2.6 0-4.7-1.6-4.7-3.7v-7.9c0-2 2.1-3.7 4.7-3.7h49.6c2.6 0 4.7 1.6 4.7 3.7v7.9c0 2.1-2.1 3.7-4.7 3.7z" fill-rule="nonzero"/><path d="m32.7 40.2c5.3-6 13-9.8 21.6-9.8h36.8c15.8 0 28.7 12.8 28.7 28.7v57.5c0 13.6-11 24.7-24.7 24.7h-44.8c-13.6 0-24.7-11-24.7-24.7v-57.5c0-7.3 2.7-13.9 7.1-18.9" fill-rule="nonzero"/><path d="m119.7 62.9v55.7c0 12.4-10.1 22.5-22.5 22.5h-38.2c-11.6 0-21.2-8.8-22.4-20.1-.1-.8-.1-1.6-.1-2.4v-55.7c0-14.5 11.7-26.2 26.2-26.2h30.9c14.4 0 26.1 11.8 26.1 26.2z" fill-rule="nonzero"/><path d="m119.7 95.5v23.1c0 12.4-10.1 22.5-22.5 22.5h-38.2c-6.6 0-12.6-2.9-16.7-7.4-4.4-4.9-1-12.7 5.5-12.7h46.3c14.2.1 25.6-11.3 25.6-25.5z" fill="#bad8ff" fill-rule="nonzero"/><g stroke-linecap="round" stroke-linejoin="round" stroke-width="3"><path d="m30.7 42.8c.1-.1.2-.2.2-.3"/><path d="m35.3 37.5c5.1-4.4 11.7-7.1 18.9-7.1h36.8c15.8 0 28.7 12.8 28.7 28.7v57.5c0 13.6-11 24.7-24.7 24.7h-44.8c-13.6 0-24.7-11-24.7-24.7v-57.5c0-1 .1-2.1.2-3.1"/><path d="m54.1.6h46.7c2.9 0 5.3 2.4 5.3 5.3v11.4c0 2.9-2.4 5.3-5.3 5.3h-56.3c-2.9 0-5.3-2.4-5.3-5.3v-11.4c0-2.9 2.4-5.3 5.3-5.3"/><path d="m60.2 62.8h.5"/><path d="m35.3 62.8h19.5"/><path d="m84.3 14.5h-.1"/><path d="m103.7 14.5h-12.5"/><path d="m59.3 110.7h60.5"/><path d="m26 110.7h7.9"/></g></g></svg>

<?xml version="1.0" encoding="UTF-8"?>
<svg width="150px" height="145px" viewBox="0 0 150 145" version="1.1" xmlns="http://www.w3.org/2000/svg" xmlns:xlink="http://www.w3.org/1999/xlink">
    <!-- Generator: Sketch 51.2 (57519) - http://www.bohemiancoding.com/sketch -->
    <title>Protein</title>
    <desc>Created with Sketch.</desc>
    <defs></defs>
    <g id="Page-1" stroke="none" stroke-width="1" fill="none" fill-rule="evenodd">
        <g id="Protein" transform="translate(2.000000, 1.000000)">
            <g id="Group" transform="translate(0.000000, 141.000000)" class="stroke-primary-300" stroke-linecap="round" stroke-linejoin="round" stroke-width="3">
                <path d="M1.7,0.8 L0.3,0.8" id="Shape"></path>
                <path d="M41.8,0.8 L7.3,0.8" id="Shape"></path>
                <path d="M49.3,0.8 L47.9,0.8" id="Shape"></path>
                <path d="M139.2,0.8 L56.9,0.8" id="Shape"></path>
                <path d="M145.8,0.8 L143.7,0.8" id="Shape"></path>
            </g>
            <path d="M100.8,22.5 L44.5,22.5 C41.6,22.5 39.2,20.1 39.2,17.2 L39.2,5.8 C39.2,2.9 41.6,0.5 44.5,0.5 L100.8,0.5 C103.7,0.5 106.1,2.9 106.1,5.8 L106.1,17.2 C106.1,20.1 103.7,22.5 100.8,22.5 Z" id="Shape" class="fill-neutral" fill-rule="nonzero"></path>
            <path d="M101.4,22.5 L51.8,22.5 C49.2,22.5 47.1,20.9 47.1,18.8 L47.1,10.9 C47.1,8.9 49.2,7.2 51.8,7.2 L101.4,7.2 C104,7.2 106.1,8.8 106.1,10.9 L106.1,18.8 C106.1,20.9 104,22.5 101.4,22.5 Z" id="Shape" class="fill-primary-400" fill-rule="nonzero"></path>
            <path d="M32.7,40.2 C38,34.2 45.7,30.4 54.3,30.4 L91.1,30.4 C106.9,30.4 119.8,43.2 119.8,59.1 L119.8,116.6 C119.8,130.2 108.8,141.3 95.1,141.3 L50.3,141.3 C36.7,141.3 25.6,130.3 25.6,116.6 L25.6,59.1 C25.6,51.8 28.3,45.2 32.7,40.2" id="Shape" class="fill-neutral" fill-rule="nonzero"></path>
            <path d="M119.7,62.9 L119.7,118.6 C119.7,131 109.6,141.1 97.2,141.1 L59,141.1 C47.4,141.1 37.8,132.3 36.6,121 C36.5,120.2 36.5,119.4 36.5,118.6 L36.5,62.9 C36.5,48.4 48.2,36.7 62.7,36.7 L93.6,36.7 C108,36.7 119.7,48.5 119.7,62.9 Z" id="Shape" class="fill-primary-100" fill-rule="nonzero"></path>
            <path d="M119.7,95.5 L119.7,118.6 C119.7,131 109.6,141.1 97.2,141.1 L59,141.1 C52.4,141.1 46.4,138.2 42.3,133.7 C37.9,128.8 41.3,121 47.8,121 C55.7,121 69.6,121 94.1,121 C108.3,121.1 119.7,109.7 119.7,95.5 Z" id="Shape" fill="#BAD8FF" fill-rule="nonzero"></path>
            <path d="M30.7,42.8 C30.8,42.7 30.9,42.6 30.9,42.5" id="Shape" class="stroke-primary" stroke-width="3" stroke-linecap="round" stroke-linejoin="round"></path>
            <path d="M35.3,37.5 C40.4,33.1 47,30.4 54.2,30.4 L91,30.4 C106.8,30.4 119.7,43.2 119.7,59.1 L119.7,116.6 C119.7,130.2 108.7,141.3 95,141.3 L50.2,141.3 C36.6,141.3 25.5,130.3 25.5,116.6 L25.5,59.1 C25.5,58.1 25.6,57 25.7,56" id="Shape" class="stroke-primary" stroke-width="3" stroke-linecap="round" stroke-linejoin="round"></path>
            <path d="M54.1,0.6 L100.8,0.6 C103.7,0.6 106.1,3 106.1,5.9 L106.1,17.3 C106.1,20.2 103.7,22.6 100.8,22.6 L44.5,22.6 C41.6,22.6 39.2,20.2 39.2,17.3 L39.2,5.9 C39.2,3 41.6,0.6 44.5,0.6" id="Shape" class="stroke-primary" stroke-width="3" stroke-linecap="round" stroke-linejoin="round"></path>
            <path d="M60.2,62.8 L60.7,62.8" id="Shape" class="stroke-primary" stroke-width="3" stroke-linecap="round" stroke-linejoin="round"></path>
            <path d="M35.3,62.8 L54.8,62.8" id="Shape" class="stroke-primary" stroke-width="3" stroke-linecap="round" stroke-linejoin="round"></path>
            <path d="M84.3,14.5 L84.2,14.5" id="Shape" class="stroke-primary" stroke-width="3" stroke-linecap="round" stroke-linejoin="round"></path>
            <path d="M103.7,14.5 L91.2,14.5" id="Shape" class="stroke-primary" stroke-width="3" stroke-linecap="round" stroke-linejoin="round"></path>
            <path d="M59.3,110.7 L119.8,110.7" id="Shape" class="stroke-primary" stroke-width="3" stroke-linecap="round" stroke-linejoin="round"></path>
            <path d="M26,110.7 L33.9,110.7" id="Shape" class="stroke-primary" stroke-width="3" stroke-linecap="round" stroke-linejoin="round"></path>
        </g>
    </g>
</svg>
